!!!!SEGMENT: pl-gd--ee-1638--003-023_marenzio-luca--madrigali-a-quatro-voci-ma-per-me-lasso.krn
!!!cenid: 15xx:997
!!!COM: Marenzio, Luca
!!!COM-rismID: pe30003955
!!!CDT: ~1553-1599/08/22
!!!CNT: Italian
!!!GTL: Madrigali a quatro voci
!!!OTL: Ma per me lasso
!!!OMV: 023
!!!PDT: 1587
!!!AGN:
!!!SMS-siglum: PL-GD
!!!SMS-shelfmark: Ee 1638
!!!SMS-shelfwork: 003-023 G
!!!SMS-variant:
!!!SMS-altvar:
!!!NIFC-rismSourceID: 1001202747
!!!NIFC-rismChildID: 990039322
!!!NIFC-islandoraID: pl-gd:57883
!!!URL-pdf-islandora: https://repozytorium.nifc.pl/islandora/object/pl-gd%3A57883/datastream/PDF/view
!!!URL-scan: https://polish.musicsources.pl/pl/lokalizacje/galeria/klocki-introligatorskie/655 @EN{Scan on Polish Music Sources Website} @PL{Skany w portalu Dziedzictwo Muzyki Polskiej w otwartym dostępie}
!!!ONB-nifc: UWAGA: zbiór na stronach: Canto: s. 637-653, Alto: s. do 486-501, Tenore: s. do 334-349, Bassus: s. do 182-197. Uwaga: utwory podzielone wg tytułów w spisach treści dostępnych na końcu każdej księgi głosowej.
!!!AIN: 1 alto 1 bass 1 soprn 1 tenor
!!!key: g:dor
!!!filter-modern: sic -sq | shed -e "s/TX(.*):t=P:/tx$1:t=P:/LG" | shed -k -e "s/LO:N:vis/LO:n:vis:/L" | shed -e "s/^(\d+[\/\\]right)/$1yy/I;s/^(\d+[\/\\]left)/$1yy/I" | shed -e "s/-//B" | shed -e "s/^custos:/Xcustos:/I" | shed -k -e "s/LO:N:acc/LO:n:acc:/L" | autostem -r | tie -s  | humtr -p | modori -m
**kern	**text	**kern	**text	**kern	**text	**kern	**text
*part4	*part4	*part3	*part3	*part2	*part2	*part1	*part1
*staff4	*staff4	*staff3	*staff3	*staff2	*staff2	*staff1	*staff1
*I"BASSO	*	*I"TENORE	*	*I"ALTO	*	*I"CANTO	*
*I'B	*	*I'T	*	*I'A	*	*I'S	*
*mI"Basso	*	*mI"Tenore	*	*mI"Alto	*	*mI"Soprano	*
*Ibass	*	*Itenor	*	*Ialto	*	*Isoprn	*
*ICvox	*	*ICvox	*	*ICvox	*	*ICvox	*
*clefF3	*	*clefC3	*	*clefC2	*	*clefG2	*
*	*	*mclefGv2	*	*mclefG2	*	*	*
*k[b-]	*	*k[b-]	*	*k[b-]	*	*k[b-]	*
*g:dor	*	*g:dor	*	*g:dor	*	*g:dor	*
*M2/1	*	*M2/1	*	*M2/1	*	*M2/1	*
*met(C)	*	*met(C)	*	*met(C)	*	*met(C)	*
*mmet(c)	*	*mmet(c)	*	*mmet(c)	*	*mmet(c)	*
=1-	=1-	=1-	=1-	=1-	=1-	=1-	=1-
*xywh-#193:4520,569,3569,910	*	*xywh-#345:4710,1247,3400,731	*	*xywh-#497:4526,1124,3417,814	*	*xywh-#649:4619,1151,3403,781	*
!LO:TX:t=P:problem=przy kluczu BB- B-	!	!	!	!	!	!	!
!LO:TX:a:t=Seconda parte.:mod=	!LO:MO:mod=Ma	!	!LO:MO:mod=Ma	!	!	!	!
1.d	MA	1.f	MA	1r	.	00r	.
!	!	!	!	!	!LO:MO:mod=Ma	!	!
.	.	.	.	1.a	MA	.	.
2c\	per	2e\	per	.	.	.	.
=2-	=2-	=2-	=2-	=2-	=2-	=2-	=2-
0c	me	0e	me	.	.	.	.
.	.	.	.	2g\	per	.	.
.	.	.	.	2g\	me	.	.
.	.	.	.	1a\	laſ-	.	.
=3-	=3-	=3-	=3-	=3-	=3-	=3-	=3-
0B-	laſ-	0d	laſ-	.	.	1r	.
.	.	.	.	4g\	.	.	.
.	.	.	.	4f\	.	.	.
!	!	!	!	!	!	!	!LO:MO:mod=Ma
.	.	.	.	1g	.	1.dd	MA
=4-	=4-	=4-	=4-	=4-	=4-	=4-	=4-
0A	ſo	0e	ſo	0a	ſo	.	.
.	.	.	.	.	.	2cc\	per
.	.	.	.	.	.	1cc	me
=5-	=5-	=5-	=5-	=5-	=5-	=5-	=5-
2.G\	tor-	2.g\	tor-	2.d/	tor-	0b-	laſ-
4G\	-na-	4g\	-na-	4d/	-na-	.	.
2G\	-no_i	2g\	-no_i	2d/	-no_i	.	.
!	!LO:MO:mod=più	!	!LO:MO:mod=più	!	!LO:MO:mod=più	!	!
2G\	piu	2g\	piu	2e/	piu	.	.
=6-	=6-	=6-	=6-	=6-	=6-	=6-	=6-
1F	gra-	1c	gra-	1f	gra-	1a	-ſo
!	!LO:MO:mod=-vi	!	!LO:MO:mod=-vi	!	!LO:MO:mod=-vi	!	!
2D/	-ui	2B-/	-ui	1f	-ui	2.dd\	tor-
2D/	So-	2A/	So-	.	.	.	.
.	.	.	.	.	.	4dd\	-na-
*	*	*	*	*custos:b	*	*	*
!	!	!	!	!LO:LB:g=original	!	!	!
=7-	=7-	=7-	=7-	=7-	=7-	=7-	=7-
*	*	*	*	*xywh-#497:4516,1745,3342,707	*	*	*
1G	ſpi-	2.B-/	ſpi-	2r	.	2dd\	-no_i
!	!	!	!	!	!	!	!LO:MO:mod=più
.	.	.	.	1b-\	So-	2ee\	piu
.	.	4c/	.	.	.	.	.
0.F	ri	2d\	.	.	.	1ff	gra-
.	.	4c/	.	4a\	.	.	.
.	.	4B-/	.	4g\	.	.	.
*	*	*custos:c	*	*	*	*	*
!	!	!LO:LB:g=original	!	!	!	!	!
=8-	=8-	=8-	=8-	=8-	=8-	=8-	=8-
*	*	*xywh-#345:4690,1793,3400,690	*	*	*	*	*
!	!	!	!	!	!	!	!LO:MO:mod=-vi
.	.	4c/	.	2a\	.	2ff\	-ui
.	.	4F/	.	.	.	.	.
.	.	2.f\	.	1b-\	ſpi-	2dd\	So-
.	.	.	.	.	.	1cc	-ſpi-
.	.	8e\	.	.	.	.	.
.	.	8d\	.	.	.	.	.
.	.	2c/	.	2a\	-ri	.	.
*custos:BB	*	*	*	*	*	*	*
!LO:LB:g=original	!	!	!	!	!	!	!
=9-	=9-	=9-	=9-	=9-	=9-	=9-	=9-
*xywh-#193:4520,1200,3476,734	*	*	*	*	*	*	*
4BB-/	che	1B-	ri	2r	.	1dd	-ri
4BB-/	dal	.	.	.	.	.	.
1B-\	cor	.	.	4f\	che	.	.
.	.	.	.	4f\	del	.	.
*	*	*	*	*	*	*custos:b	*
!	!	!	!	!	!	!LO:LB:g=original	!
*	*	*	*	*	*	*xywh-#649:4598,1748,3465,668	*
.	.	4G/	che	1b-	cor	2r	.
.	.	4G/	dal	.	.	.	.
4G\	che	1d\	cor	.	.	4b-/	che
4G\	dal	.	.	.	.	4b-/	dal
=10-	=10-	=10-	=10-	=10-	=10-	=10-	=10-
2d\	cor	.	.	1a	pro-	2ff\	cor
2D/	pro-	2d\	pro-	.	.	2f/	pro-
2AA/	-fon-	2c#X/	-fon-	2a\	-fon-	2e/	-fon-
2AA/	-do	2c#/	-do	1A/	-do	2e/	-do
=11-	=11-	=11-	=11-	=11-	=11-	=11-	=11-
4D/	trag-	2d\	trag-	.	.	4f/	trag-
4E/	.	.	.	.	.	4g/	.
4F/	.	2A/	-ge	2d/	trag-	4a/	.
4G\	.	.	.	.	.	4b-/	.
4A\	.	1r	.	1c	-ge	4cc\	.
4B-\	.	.	.	.	.	4dd\	.
2c\	.	.	.	.	.	4ee\	.
.	.	.	.	.	.	4ff\	.
=12-	=12-	=12-	=12-	=12-	=12-	=12-	=12-
2G\	ge	1g	Quel-	1d	Quel-	2gg\	.
1B-\	Quel-	.	.	.	.	2dd\	-ge
.	.	4f\	-la	4d/	-la	1ff	Quel-
.	.	4d\	ch'al	4f\	ch'al	.	.
4A\	-la	2.a\	ciel	2.cc\	ciel	.	.
4F/	ch'al	.	.	.	.	.	.
=13-	=13-	=13-	=13-	=13-	=13-	=13-	=13-
2.c\	ciel	.	.	.	.	4ee\	-la
.	.	4A/	ſe	4c/	ſe	4cc\	ch'al
.	.	4cny/	ne	4e/	ne	2.gg\	ciel
4B-\	ſe	4d\	por-	4f\	por-	.	.
*custos:G	*	*custos:e	*	*custos:g	*	*	*
!LO:LB:g=original	!	!LO:LB:g=original	!	!LO:LB:g=original	!	!	!
*xywh-#193:4572,1800,3393,703	*	*xywh-#345:4607,2318,3585,669	*	*xywh-#497:4526,2174,3449,760	*	*	*
2G\	ne	4e\	-tò	4g\	-tò	.	.
.	.	4d\	le	4a\	le	4ff\	ſe
2G\	por-	2g\	chia-	2b-\	chia-	4ee\	ne
.	.	.	.	.	.	4dd\	por-
*	*	*	*	*	*	*custos:cc	*
!	!	!	!	!	!	!LO:LB:g=original	!
=14-	=14-	=14-	=14-	=14-	=14-	=14-	=14-
*	*	*	*	*	*	*xywh-#649:4639,2292,3362,668	*
!	!	!	!	!	!LO:MO:mod=-vi	!	!
2A\	-tò	2e\	ui	1a	ui	4cc\	-tò
.	.	.	.	.	.	4b-/	le
2F/	le	4r	.	.	.	2.a/	chia-
.	.	4f\	le	.	.	.	.
2.B-\	chia-	2.d\	chia-	1r	.	.	.
.	.	.	.	.	.	4g/	.
.	.	.	.	.	.	2.g/	.
8A\	.	8c/	.	.	.	.	.
8G\	.	8B-/	.	.	.	.	.
=15-	=15-	=15-	=15-	=15-	=15-	=15-	=15-
1A	.	1c	.	0r	.	.	.
.	.	.	.	.	.	8f/	.
.	.	.	.	.	.	8e/	.
.	.	.	.	.	.	2f#X/	.
!	!LO:MO:mod=-vi	!	!LO:MO:mod=-vi	!	!	!	!LO:MO:mod=-vi
0G	ui	1.d	-ui	.	.	1g	-ui
=16-	=16-	=16-	=16-	=16-	=16-	=16-	=16-
.	.	.	.	4b-\	E	4gg\	E
.	.	.	.	4b-\	can-	4gg\	can-
.	.	2r	.	4b-\	-tar	4gg\	-tar
.	.	.	.	8a\	au-	8ff\	au-
.	.	.	.	8g\	-gel-	8ee\	-gel-
4d\	E	4f\	E	4a\	-let-	4ff\	-let-
4d\	can-	4f\	can-	4a\	-ti	4ff\	-ti
4d\	-tar	4f\	-tar	2r	.	2r	.
8c\	au-	8e\	au-	.	.	.	.
8B-\	-gel-	8d\	-gel-	.	.	.	.
=17-	=17-	=17-	=17-	=17-	=17-	=17-	=17-
4c\	-let-	4e\	-let-	4g\	E	4ee\	E
!	!	!	!	!	!LO:MO:mod=can-	!	!
4c\	-ti	4e\	-ti	4g\	ca(n)-	4ee\	can-
2r	.	2r	.	4cc\	-tar	4ee\	-tar
.	.	.	.	8b-\	au-	8dd\	au-
.	.	.	.	8a\	-gel-	8cc\	-gel-
*	*	*	*	*	*	*custos:dd	*
!	!	!	!	!	!	!LO:LB:g=original	!
*	*	*	*	*	*	*xywh-#649:4619,2837,3516,658	*
4B-\	E	4f\	E	4b-\	-let-	4dd\	-let-
!	!	!	!LO:MO:mod=can-	!	!	!	!
4B-\	can-	4d\	ca(n)-	4f\	-ti	4dd\	-ti
4B-\	-tar	4d\	-tar	2r	.	2r	.
8A\	au-	8c/	au-	.	.	.	.
8G\	-gel-	8B-/	-gel-	.	.	.	.
*custos:A	*	*custos:c	*	*	*	*	*
!LO:LB:g=original	!	!LO:LB:g=original	!	!	!	!	!
=18-	=18-	=18-	=18-	=18-	=18-	=18-	=18-
*xywh-#193:4541,2338,3341,672	*	*xywh-#345:4659,2906,3441,628	*	*	*	*	*
4A\	-let-	4c/	-let-	4e/	E	4cc\	E
!	!	!	!	!	!LO:MO:mod=can-	!	!
4A\	-ti	4c/	-ti	4e/	ca(n)-	4cc\	can-
2r	.	2r	.	4a\	-tar	4cc\	-tar
.	.	.	.	8g\	au-	8b-/	au-
.	.	.	.	8f\	-gel-	8a/	-gel-
*	*	*	*	*custos:g	*	*	*
!	!	!	!	!LO:LB:g=original	!	!	!
*	*	*	*	*xywh-#497:4537,2784,3449,674	*	*	*
4G\	E	4d\	E	4g\	-let-	4b-/	-let-
4G\	can-	4d\	can-	4g\	-ti	4b-/	-ti
4G\	-tar	4B-/	-tar	2r	.	2r	.
8F/	au-	8A/	au-	.	.	.	.
8E/	-gel-	8G/	-gel-	.	.	.	.
=19-	=19-	=19-	=19-	=19-	=19-	=19-	=19-
4F/	-let-	4A/	-let-	4.a\	e	2r	.
4F/	-ti	4c/	-ti	.	.	.	.
.	.	.	.	8b-\	fio-	.	.
1r	.	2r	.	4.cc\	-rir	4.ee\	e
.	.	.	.	16b-\	.	8ff\	fio-
.	.	.	.	16a\	.	.	.
.	.	4.e\	e	2g\	.	4.gg\	-rir
.	.	8f\	fio-	.	.	16ff\	.
.	.	.	.	.	.	16ee\	.
4.G\	e	4.g\	-rir	2b-\	piag-	1dd\	.
8A\	fio-	16f\	.	.	.	.	.
.	.	16e\	.	.	.	.	.
=20-	=20-	=20-	=20-	=20-	=20-	=20-	=20-
4.B-\	-rir	4d\	.	4f\	-ge	.	.
.	.	2d\	piag-	4.f\	e	.	.
16A\	.	.	.	.	.	.	.
16G\	.	.	.	.	.	.	.
2F/	.	.	.	.	.	4.a/	e
.	.	.	.	8g\	fio-	.	.
.	.	4c/	-ge	4.a\	-rir	.	.
.	.	.	.	.	.	8b-/	fio-
4.A\	e	2r	.	.	.	4.cc\	-rir
.	.	.	.	16g\	.	.	.
.	.	.	.	16f\	.	.	.
.	.	.	.	4.e/	.	.	.
8B-\	fio-	.	.	.	.	16b-/	.
.	.	.	.	.	.	16a/	.
4.c\	-rir	4.e\	e	.	.	4.g/	.
.	.	.	.	8f\	.	.	.
.	.	.	.	4.g\	.	.	.
16B-\	.	8f\	fio-	.	.	8a/	.
16A\	.	.	.	.	.	.	.
*	*	*	*	*	*	*custos:b	*
!	!	!	!	!	!	!LO:LB:g=original	!
=21-	=21-	=21-	=21-	=21-	=21-	=21-	=21-
*	*	*	*	*	*	*xywh-#649:4639,3362,3424,616	*
4.G\	.	2g\	-rir	.	.	4.b-/	.
.	.	.	.	16f\	.	.	.
.	.	.	.	16e\	.	.	.
.	.	.	.	2d/	.	.	.
16F/	.	.	.	.	.	16a/	.
16E/	.	.	.	.	.	16g/	.
2D/	.	4.a\	piag-	.	.	2fny/	.
.	.	.	.	2f\	piag-	.	.
.	.	8g\	.	.	.	.	.
*custos:F	*	*custos:f	*	*	*	*	*
!LO:LB:g=original	!	!LO:LB:g=original	!	!	!	!	!
*xywh-#193:4562,2907,3403,641	*	*xywh-#345:4648,3390,3431,680	*	*	*	*	*
2F/	piag-	2f\	.	.	.	2a/	-piag-
.	.	.	.	4c/	-ge	.	.
2C/	-ge	2e\	ge	2r	.	2g/	-ge
*	*	*	*	*custos:f	*	*	*
!	!	!	!	!LO:LB:g=original	!	!	!
=22-	=22-	=22-	=22-	=22-	=22-	=22-	=22-
*	*	*	*	*xywh-#497:4462,3320,3439,717	*	*	*
00r	.	2r	.	1f	E'n	2r	.
.	.	2f\	E'n	.	.	2a/	E'n
.	.	2.f\	bel-	2.a\	bel-	2.cc\	bel-
.	.	4f\	-le	4a\	-le	4cc\	-le
=23-	=23-	=23-	=23-	=23-	=23-	=23-	=23-
.	.	2e\	don-	2g\	don-	2cc\	don-
.	.	2f\	-ne_ho-	2a\	-ne_ho-	2cc\	-ne_ho-
.	.	1B-	-ne-	1b-	-ne-	1dd	-ne-
=24-	=24-	=24-	=24-	=24-	=24-	=24-	=24-
0r	.	2B-/	-ſte	2b-\	-ſte	2dd\	-ſte
.	.	4r	.	4r	.	4r	.
.	.	4.e-X\	at-	4.g\	at-	4.b-/	at-
.	.	.	.	.	.	.	.
.	.	8e-\	-ti	8g\	-ti	8b-/	-ti
.	.	4f\	ſo-	4f\	ſo-	4a/	ſo-
.	.	1c\	-a-	1e\	-a-	1g/	-a-
=25-	=25-	=25-	=25-	=25-	=25-	=25-	=25-
1r	.	.	.	.	.	.	.
!	!	!	!LO:MO:mod=-vi	!	!LO:MO:mod=-vi	!	!LO:MO:mod=-vi
.	.	2c/	-ui	2e/	-ui	4g/	-ui
.	.	.	.	.	.	2gg\	So-
2c\	So-	4r	.	4r	.	.	.
.	.	4c/	So-	2cc\	So-	2ee\	-no_un
2A\	-no_un	4eny\	-no_un	.	.	.	.
*	*	*	*	*	*	*custos:cc	*
!	!	!	!	!	!	!LO:LB:g=original	!
*	*	*	*	*	*	*xywh-#649:4670,3917,3424,637	*
.	.	4e\	-de-	2a\	-no_un	2cc\	de-
=26-	=26-	=26-	=26-	=26-	=26-	=26-	=26-
2F/	-de-	2f\	ſer-	.	.	.	.
.	.	.	.	2f\	de-	2a/	ſer-
2D/	ſer-	2a\	-to	.	.	.	.
.	.	.	.	2d/	-ſer-	2f/	-to
*	*	*custos:d	*	*	*	*	*
!	!	!LO:LB:g=original	!	!	!	!	!
*	*	*xywh-#345:4710,3936,3379,680	*	*	*	*	*
2BB-/	-to	4r	.	.	.	.	.
.	.	4d\	So-	2B-/	to	2ff\	So-
2B-\	So-	4f\	-no_un	.	.	.	.
.	.	4f\	de-	2b-\	So-	2dd\	-no_un
=27-	=27-	=27-	=27-	=27-	=27-	=27-	=27-
2G\	-no_un	2g\	ſer-	.	.	.	.
.	.	.	.	2g\	-no_un	2b-/	de-
2d\	-de-	4G/	-to	.	.	.	.
*	*	*	*ij	*	*	*	*
.	.	4B-/	So-	2f\	de-	2b-/	-ſer-
2B-\	ſer-	4d\	-no_un	.	.	.	.
.	.	4d\	de-	2b-\	-ſer-	4f/	-to_e
2G\	-to_e	1e-X\	-ſer-	.	.	1b-\	fe-
.	.	.	.	4g\	-to_e	.	.
*	*	*	*	*custos:f	*	*	*
!	!	!	!	!LO:LB:g=original	!	!	!
=28-	=28-	=28-	=28-	=28-	=28-	=28-	=28-
*	*	*	*	*xywh-#497:4505,3866,3557,674	*	*	*
1B-	fe-	.	.	1f	fe-	.	.
.	.	1d\	-to_e	.	.	1b-\	-re_a-
*	*	*	*Xij	*	*	*	*
1E-X	-re_a-	.	.	1g	-re_a-	.	.
.	.	1c\	fe-	.	.	1cc\	-ſpre_e
=29-	=29-	=29-	=29-	=29-	=29-	=29-	=29-
1.F	-ſpre_e	.	.	2a\	-ſpre_e	.	.
.	.	1d\	-re_a-	2b-\	ſel-	1b-\	ſel-
!	!	!	!	!	!LO:MO:mod=-vag-	!	!
.	.	.	.	2.cc\	-uag-	.	.
2Eny/	ſel-	1c\	-ſpre_e	.	.	4a/	.
.	.	.	.	4c/	.	4g/	.
=30-	=30-	=30-	=30-	=30-	=30-	=30-	=30-
!	!LO:MO:mod=-vag-	!	!	!	!	!	!
1D	-uag-	.	.	0d	.	2f#X/	.
!	!	!	!	!	!	!	!LO:MO:mod=-vag-
.	.	2B-/	ſel-	.	.	1g/	-uag-
!	!	!	!LO:MO:mod=-vag-	!	!	!	!
1D	-ge	1A	-uag-	.	.	.	.
.	.	.	.	.	.	2f#X/	.
=31-	=31-	=31-	=31-	=31-	=31-	=31-	=31-
2d\	So-	0G	ge	4.B-/	ge	0g	-ge
.	.	.	.	8c/	.	.	.
2B-\	-no_un	.	.	1d/	.	.	.
*custos:G	*	*	*	*	*	*	*
!LO:LB:g=original	!	!	!	!	!	!	!
*xywh-#193:4531,3372,3507,765	*	*	*	*	*	*	*
2G\	de-	.	.	.	.	.	.
2E-X/	ſer-	.	.	4r	.	.	.
.	.	.	.	2g\	So-	.	.
*	*	*	*	*	*	*custos:gg	*
!	!	!	!	!	!	!LO:LB:g=original	!
=32-	=32-	=32-	=32-	=32-	=32-	=32-	=32-
*	*	*	*	*	*	*xywh-#649:4629,4441,3382,771	*
2C/	-to	2g\	So-	.	.	4r	.
!	!	!	!	!	!	!	!LO:MO:mod=So-
.	.	.	.	2e/	-no_un	2gg\	[s]o-
2c\	So-	2eny\	no_un	.	.	.	.
.	.	.	.	2c/	de-	2ee\	no_un
2A\	-no_un	2c/	de-	.	.	.	.
.	.	.	.	2A/	-ſer-	2cc\	de-
2F/	de-	2A/	-ſer-	.	.	.	.
.	.	.	.	4F/	-to_e	2a/	ſer-
=33-	=33-	=33-	=33-	=33-	=33-	=33-	=33-
2D/	-ſer-	1F	-to	0f	fe-	.	.
.	.	.	.	.	.	4a/	-to_e
2BB-/	-to_e	.	.	.	.	1dd\	fe-
1B-	fe-	2r	.	.	.	.	.
.	.	2d\	e	.	.	1b-\	-re_a-
*	*	*custos:e	*	*	*	*	*
!	!	!LO:LB:g=original	!	!	!	!	!
=34-	=34-	=34-	=34-	=34-	=34-	=34-	=34-
*	*	*xywh-#345:4648,4513,3369,690	*	*	*	*	*
1E-X	-re_a-	1.e-X	fe-	1g	-re_a-	.	.
.	.	.	.	.	.	1cc\	-ſpre_e
1.F	-ſpre_e	.	.	2a\	-ſpre_e	.	.
.	.	1d\	-re_a-	2b-\	sel-	1b-\	sel-
=35-	=35-	=35-	=35-	=35-	=35-	=35-	=35-
*	*	*	*	*xywh-#497:4537,4402,3514,728	*	*	*
!	!	!	!	!	!LO:MO:mod=-vag-	!	!
.	.	.	.	2.cc\	-uag-	.	.
*	*	*	*	*	*	*	*
2Eny/	sel-	1c\	-ſpre_e	.	.	4a/	.
.	.	.	.	4c/	.	4g/	.
!	!LO:MO:mod=-vag-	!	!	!	!	!	!
0D	-uag-	.	.	0d	.	2f#X/	.
!	!	!	!	!	!	!	!LO:MO:mod=-vag-
.	.	2B-/	sel-	.	.	1g/	-uag-
=36-	=36-	=36-	=36-	=36-	=36-	=36-	=36-
!	!	!	!LO:MO:mod=-vag-	!	!	!	!
.	.	1A	-uag-	.	.	.	.
.	.	.	.	.	.	2f#X/	.
!	!	!	!	!LO:N:acc=#	!	!	!
1Gl	ge.	1Gl	ge.	1Bnl	-ge.	1gl	-ge.
!LO:TX:b:t=Madrigali di Luca Marenzio. Lib. I. a 4. Q finis.:mod=	!	!LO:TX:b:t=Madrigali di Luca Marenzio. Lib. 1. a 4. H:mod=	!	!LO:TX:b:t=Madrigali di Luca Marenzio. Lib. 1. a 4.:mod=	!	!LO:TX:b:t=Madrigali di Luca Marenzio. Lib. 1. a 4. D:mod=	!
==	==	==	==	==	==	==	==
*-	*-	*-	*-	*-	*-	*-	*-
!!!system-decoration: [(*)]
!!!RDF**kern: l = terminal long
!!!ENC: Marta Opryszak
!!!END: 2022-06-28
!!!ENC: Andrzej Kubiczek
!!!END: 2022-07-14
!!!YEC: Copyright 2022 Narodowy Instytut Fryderyka Chopina (https://polishscores.org)
!!!YEM: License CC-BY-4.0 (https://creativecommons.org/licenses/by/4.0)
!!!IIIF: https://repozytorium.nifc.pl/islandora/object/pl-gd%3A57883/datastream/IIIF/view
!!!ENC-IIIF: Zuzanna Daniec
!!!END-IIIF: 2022-09-17
!!!ENC-modern: Andrzej Borzym
!!!END-modern: 2022-11-05
